nextcloudappstore/core/static/assets/img/icons/detail/feature-search-white.svg

<svg width="20" height="20" fill="none" style="-webkit-print-color-adjust:exact" version="1.1" viewBox="0 0 20 20" xmlns="http://www.w3.org/2000/svg"><g rx="0" ry="0" fill="#000"><g class="fills"><path rx="0" ry="0" d="m16.667 16.667c0 0.92-0.747 1.666-1.667 1.666h-11.667c-0.92 0-1.666-0.746-1.666-1.666v-11.667c0-0.92 0.746-1.667 1.666-1.667h4.584c-0.25 0.667-0.417 1.334-0.417 2.084 0 3 2.417 5.416 5.417 5.416 0.666 0 1.25-0.083 1.75-0.333l2 2v4.167zm-0.584-9.25c0.334-0.584 0.584-1.25 0.584-2 0-2.084-1.667-3.75-3.75-3.75-2.084 0-3.75 1.666-3.75 3.75 0 2.083 1.666 3.75 3.75 3.75 0.75 0 1.416-0.25 2-0.584l2.583 2.584 1.167-1.167-2.584-2.583zm-3.166 0.083c-1.167 0-2.084-0.917-2.084-2.083 0-1.167 0.917-2.084 2.084-2.084 1.166 0 2.083 0.917 2.083 2.084 0 1.166-0.917 2.083-2.083 2.083z" fill="#fff"/></g></g></svg>

<svg xmlns:xlink="http://www.w3.org/1999/xlink" width="20" xmlns="http://www.w3.org/2000/svg" height="20" id="screenshot-db15cf86-6f9e-8025-8002-bbab9ed6fd4e" viewBox="0 0 20 20" style="-webkit-print-color-adjust: exact;" fill="none" version="1.1"><g id="shape-db15cf86-6f9e-8025-8002-bbab9ed6fd4e" rx="0" ry="0" style="fill: rgb(0, 0, 0);"><g id="shape-db15cf86-6f9e-8025-8002-bbab9ed6fd50"><g class="fills" id="fills-db15cf86-6f9e-8025-8002-bbab9ed6fd50"><path rx="0" ry="0" d="M16.667,16.667C16.667,17.587,15.920,18.333,15.000,18.333L3.333,18.333C2.413,18.333,1.667,17.587,1.667,16.667L1.667,5.000C1.667,4.080,2.413,3.333,3.333,3.333L7.917,3.333C7.667,4.000,7.500,4.667,7.500,5.417C7.500,8.417,9.917,10.833,12.917,10.833C13.583,10.833,14.167,10.750,14.667,10.500L16.667,12.500L16.667,16.667ZM16.083,7.417C16.417,6.833,16.667,6.167,16.667,5.417C16.667,3.333,15.000,1.667,12.917,1.667C10.833,1.667,9.167,3.333,9.167,5.417C9.167,7.500,10.833,9.167,12.917,9.167C13.667,9.167,14.333,8.917,14.917,8.583L17.500,11.167L18.667,10.000L16.083,7.417ZM12.917,7.500C11.750,7.500,10.833,6.583,10.833,5.417C10.833,4.250,11.750,3.333,12.917,3.333C14.083,3.333,15.000,4.250,15.000,5.417C15.000,6.583,14.083,7.500,12.917,7.500ZZ" style="fill: rgb(255, 255, 255); fill-opacity: 1;"/></g></g></g></svg>
